docs/datalinker_states.svg

<?xml version="1.0" encoding="UTF-8" standalone="no"?>
<svg
   width="355pt"
   height="295pt"
   style="overflow: hidden; "
   version="1.1"
   id="svg12"
   sodipodi:docname="datalinker_states.svg"
   inkscape:version="1.3.1 (9b9bdc1480, 2023-11-25, custom)"
   xmlns:inkscape="http://www.inkscape.org/namespaces/inkscape"
   xmlns:sodipodi="http://sodipodi.sourceforge.net/DTD/sodipodi-0.dtd"
   xmlns="http://www.w3.org/2000/svg"
   xmlns:svg="http://www.w3.org/2000/svg">
  <defs
     id="defs12" />
  <sodipodi:namedview
     id="namedview12"
     pagecolor="#ffffff"
     bordercolor="#666666"
     borderopacity="1.0"
     inkscape:showpageshadow="2"
     inkscape:pageopacity="0.0"
     inkscape:pagecheckerboard="0"
     inkscape:deskcolor="#d1d1d1"
     inkscape:document-units="pt"
     showgrid="false"
     inkscape:zoom="1"
     inkscape:cx="220.5"
     inkscape:cy="338.5"
     inkscape:window-width="2494"
     inkscape:window-height="1371"
     inkscape:window-x="0"
     inkscape:window-y="0"
     inkscape:window-maximized="1"
     inkscape:current-layer="svg12" />
  <g
     id="graph0"
     class="graph"
     transform="matrix(1.2535837,0,0,1.2535837,19.291027,375.84184)">
    <title
       id="title1">G</title>
    <polygon
       fill="#ffffff"
       stroke="none"
       points="351.1,4 -4,4 -4,-290.6 351.1,-290.6 "
       id="polygon1" />
    <!-- o -->
    <g
       id="node1"
       class="node">
      <title
         id="title2">o</title>
      <circle
         fill="none"
         stroke="#000000"
         cx="234.23"
         cy="-268.60001"
         id="ellipse2"
         r="18" />
    </g>
    <!-- LINK -->
    <g
       id="node2"
       class="node">
      <title
         id="title3">LINK</title>
      <ellipse
         fill="none"
         stroke="#000000"
         cx="189.23"
         cy="-179.8"
         rx="34.099998"
         ry="18"
         id="ellipse3" />
      <text
         text-anchor="middle"
         x="189.23"
         y="-175.60001"
         font-family="Times, serif"
         font-size="14px"
         id="text3">LINK</text>
    </g>
    <!-- o&#45;&gt;LINK -->
    <g
       id="edge5"
       class="edge">
      <title
         id="title4">o-&gt;LINK</title>
      <path
         fill="none"
         stroke="#000000"
         d="m 226.19,-252.08 c -6.39,12.32 -15.47,29.84 -23.04,44.43"
         id="path4" />
      <polygon
         fill="#000000"
         stroke="#000000"
         points="206.38,-206.28 198.67,-199.01 200.17,-209.5 "
         id="polygon4" />
      <text
         text-anchor="middle"
         x="240.73"
         y="-220"
         font-family="Times, serif"
         font-size="14px"
         id="text4">INSERT</text>
    </g>
    <!-- ERROR -->
    <g
       id="node3"
       class="node">
      <title
         id="title5">ERROR</title>
      <ellipse
         fill="none"
         stroke="#000000"
         cx="43.23"
         cy="-91"
         rx="43.23"
         ry="18"
         id="ellipse5" />
      <text
         text-anchor="middle"
         x="43.23"
         y="-86.800003"
         font-family="Times, serif"
         font-size="14px"
         id="text5">ERROR</text>
    </g>
    <!-- LINK&#45;&gt;ERROR -->
    <g
       id="edge1"
       class="edge">
      <title
         id="title6">LINK-&gt;ERROR</title>
      <path
         fill="none"
         stroke="#000000"
         d="m 167.06,-165.62 c -24.02,14.28 -62.6,37.22 -90.31,53.7"
         id="path6" />
      <polygon
         fill="#000000"
         stroke="#000000"
         points="78.76,-109.05 68.37,-106.95 75.18,-115.07 "
         id="polygon6" />
    </g>
    <!-- LINKED -->
    <g
       id="node4"
       class="node">
      <title
         id="title7">LINKED</title>
      <ellipse
         fill="none"
         stroke="#000000"
         cx="151.23"
         cy="-91"
         rx="46.970001"
         ry="18"
         id="ellipse7" />
      <text
         text-anchor="middle"
         x="151.23"
         y="-86.800003"
         font-family="Times, serif"
         font-size="14px"
         id="text7">LINKED</text>
    </g>
    <!-- LINK&#45;&gt;LINKED -->
    <g
       id="edge2"
       class="edge">
      <title
         id="title8">LINK-&gt;LINKED</title>
      <path
         fill="none"
         stroke="#000000"
         d="m 181.91,-162.06 c -5.28,12.05 -12.52,28.57 -18.63,42.55"
         id="path8" />
      <polygon
         fill="#000000"
         stroke="#000000"
         points="166.49,-118.12 159.27,-110.37 160.08,-120.93 "
         id="polygon8" />
    </g>
    <!-- UNLINK -->
    <g
       id="node5"
       class="node">
      <title
         id="title9">UNLINK</title>
      <ellipse
         fill="none"
         stroke="#000000"
         cx="234.23"
         cy="-18"
         rx="48.049999"
         ry="18"
         id="ellipse9" />
      <text
         text-anchor="middle"
         x="234.23"
         y="-13.8"
         font-family="Times, serif"
         font-size="14px"
         id="text9">UNLINK</text>
    </g>
    <!-- LINKED&#45;&gt;UNLINK -->
    <g
       id="edge3"
       class="edge">
      <title
         id="title10">LINKED-&gt;UNLINK</title>
      <path
         fill="none"
         stroke="#000000"
         d="m 169.65,-74.24 c 10.99,9.4 25.15,21.51 37.41,32"
         id="path10" />
      <polygon
         fill="#000000"
         stroke="#000000"
         points="209.1,-45.1 214.43,-35.94 204.55,-39.78 "
         id="polygon10" />
    </g>
    <!-- UNLINK&#45;&gt;o -->
    <g
       id="edge6"
       class="edge">
      <title
         id="title11">UNLINK-&gt;o</title>
      <path
         fill="none"
         stroke="#000000"
         d="m 252.34,-35.06 c 9.7,-9.86 20.7,-23.36 25.89,-37.94 23.82,-66.93 20.56,-94.99 -9,-159.6 -2.88,-6.31 -7.43,-12.12 -12.3,-17.12"
         id="path11" />
      <polygon
         fill="#000000"
         stroke="#000000"
         points="254.77,-246.94 249.77,-256.28 259.51,-252.1 "
         id="polygon11" />
      <text
         text-anchor="middle"
         x="320.67001"
         y="-131.2"
         font-family="Times, serif"
         font-size="14px"
         id="text11">DELETE</text>
    </g>
    <!-- UNLINK&#45;&gt;LINK -->
    <g
       id="edge4"
       class="edge">
      <title
         id="title12">UNLINK-&gt;LINK</title>
      <path
         fill="none"
         stroke="#000000"
         d="m 229.45,-35.98 c -7.72,-27.43 -23.03,-81.77 -32.37,-114.95"
         id="path12" />
      <polygon
         fill="#000000"
         stroke="#000000"
         points="193.8,-149.67 194.46,-160.24 200.54,-151.56 "
         id="polygon12" />
      <text
         text-anchor="middle"
         x="246.84"
         y="-86.800003"
         font-family="Times, serif"
         font-size="14px"
         id="text12">UPDATE</text>
    </g>
  </g>
</svg>

<svg width="355pt" height="295pt" xmlns="http://www.w3.org/2000/svg" xmlns:xlink="http://www.w3.org/1999/xlink" xmlns:ev="http://www.w3.org/2001/xml-events" style="overflow: hidden; "><g id="viewport-20241028005951610" class="svg-pan-zoom_viewport" transform="matrix(3.148408898901718,0,0,3.148408898901718,-8.999887486304488,59.73937464901772)" style="transform: matrix(3.14841, 0, 0, 3.14841, -8.99989, 59.7394);">
<g id="graph0" class="graph" transform="scale(1 1) rotate(0) translate(4 290.6)">
<title>G</title>
<polygon fill="white" stroke="none" points="-4,4 -4,-290.6 351.1,-290.6 351.1,4 -4,4"></polygon>
<!-- o -->
<g id="node1" class="node">
<title>o</title>
<ellipse fill="none" stroke="black" cx="234.23" cy="-268.6" rx="18" ry="18"></ellipse>
</g>
<!-- LINK -->
<g id="node2" class="node">
<title>LINK</title>
<ellipse fill="none" stroke="black" cx="189.23" cy="-179.8" rx="34.1" ry="18"></ellipse>
<text text-anchor="middle" x="189.23" y="-175.6" font-family="Times,serif" font-size="14.00">LINK</text>
</g>
<!-- o&#45;&gt;LINK -->
<g id="edge5" class="edge">
<title>o-&gt;LINK</title>
<path fill="none" stroke="black" d="M226.19,-252.08C219.8,-239.76 210.72,-222.24 203.15,-207.65"></path>
<polygon fill="black" stroke="black" points="206.38,-206.28 198.67,-199.01 200.17,-209.5 206.38,-206.28"></polygon>
<text text-anchor="middle" x="240.73" y="-220" font-family="Times,serif" font-size="14.00">INSERT</text>
</g>
<!-- ERROR -->
<g id="node3" class="node">
<title>ERROR</title>
<ellipse fill="none" stroke="black" cx="43.23" cy="-91" rx="43.23" ry="18"></ellipse>
<text text-anchor="middle" x="43.23" y="-86.8" font-family="Times,serif" font-size="14.00">ERROR</text>
</g>
<!-- LINK&#45;&gt;ERROR -->
<g id="edge1" class="edge">
<title>LINK-&gt;ERROR</title>
<path fill="none" stroke="black" d="M167.06,-165.62C143.04,-151.34 104.46,-128.4 76.75,-111.92"></path>
<polygon fill="black" stroke="black" points="78.76,-109.05 68.37,-106.95 75.18,-115.07 78.76,-109.05"></polygon>
</g>
<!-- LINKED -->
<g id="node4" class="node">
<title>LINKED</title>
<ellipse fill="none" stroke="black" cx="151.23" cy="-91" rx="46.97" ry="18"></ellipse>
<text text-anchor="middle" x="151.23" y="-86.8" font-family="Times,serif" font-size="14.00">LINKED</text>
</g>
<!-- LINK&#45;&gt;LINKED -->
<g id="edge2" class="edge">
<title>LINK-&gt;LINKED</title>
<path fill="none" stroke="black" d="M181.91,-162.06C176.63,-150.01 169.39,-133.49 163.28,-119.51"></path>
<polygon fill="black" stroke="black" points="166.49,-118.12 159.27,-110.37 160.08,-120.93 166.49,-118.12"></polygon>
</g>
<!-- UNLINK -->
<g id="node5" class="node">
<title>UNLINK</title>
<ellipse fill="none" stroke="black" cx="234.23" cy="-18" rx="48.05" ry="18"></ellipse>
<text text-anchor="middle" x="234.23" y="-13.8" font-family="Times,serif" font-size="14.00">UNLINK</text>
</g>
<!-- LINKED&#45;&gt;UNLINK -->
<g id="edge3" class="edge">
<title>LINKED-&gt;UNLINK</title>
<path fill="none" stroke="black" d="M169.65,-74.24C180.64,-64.84 194.8,-52.73 207.06,-42.24"></path>
<polygon fill="black" stroke="black" points="209.1,-45.1 214.43,-35.94 204.55,-39.78 209.1,-45.1"></polygon>
</g>
<!-- UNLINK&#45;&gt;o -->
<g id="edge6" class="edge">
<title>UNLINK-&gt;o</title>
<path fill="none" stroke="black" d="M252.34,-35.06C262.04,-44.92 273.04,-58.42 278.23,-73 302.05,-139.93 298.79,-167.99 269.23,-232.6 266.35,-238.91 261.8,-244.72 256.93,-249.72"></path>
<polygon fill="black" stroke="black" points="254.77,-246.94 249.77,-256.28 259.51,-252.1 254.77,-246.94"></polygon>
<text text-anchor="middle" x="320.67" y="-131.2" font-family="Times,serif" font-size="14.00">DELETE</text>
</g>
<!-- UNLINK&#45;&gt;LINK -->
<g id="edge4" class="edge">
<title>UNLINK-&gt;LINK</title>
<path fill="none" stroke="black" d="M229.45,-35.98C221.73,-63.41 206.42,-117.75 197.08,-150.93"></path>
<polygon fill="black" stroke="black" points="193.8,-149.67 194.46,-160.24 200.54,-151.56 193.8,-149.67"></polygon>
<text text-anchor="middle" x="246.84" y="-86.8" font-family="Times,serif" font-size="14.00">UPDATE</text>
</g>
</g>
</g></svg>
